X:491
T:Polska efter Axel Axelsson
S:efter Axel Axelsson
B:Sörmlands musikarkiv - Olof Anderssons uppteckningar 1936, nr 491
O:Husby, Södermanland
R:Slängpolska
M:3/4
L:1/16
Q: 120
K: G
B2 |: d2d2 B2GB d2d2 | d2d2 B2GB d2d2 | e2e2 c2c2 A2A2 | f2f2 e2fe d4 |
d2d2 B2GB d2d2 | d2d2 B2GB d2d2 | e2e2 c2c2 A2A2 |1 FDF2 G6 B2 :|2 FDF2 G6 g2|:
b2b2 g2fg e2e2 | a2a2 f2ef d4 | e2e2 c2c2 A2A2 | d2d2 B2AB G4 |
b2b2 g2fg e2e2 | a2a2 f2ef d4 | e2e2 c2c2 A2A2 |1 FDF2 G6 g2 :|2 FDF2 G8|]

